img/svg/icon-font/map.svg

<svg width="22" height="22" viewBox="0 0 22 22" fill="none" xmlns="http://www.w3.org/2000/svg">
<path fill-rule="evenodd" clip-rule="evenodd" d="M15.9054 14.6536C15.6107 14.6536 15.3365 14.5025 15.179 14.2534C14.593 13.3262 13.8502 12.5127 13.1318 11.726C11.6625 10.117 10.1432 8.4532 10.1407 5.92406C10.1445 2.65671 12.8043 0 16.0698 0C19.3354 0 21.9951 2.65671 21.9989 5.92221C21.9964 8.45316 20.4771 10.1169 19.0078 11.726L19.0074 11.7265C18.2892 12.513 17.5465 13.3264 16.9606 14.2534C16.8031 14.5025 16.529 14.6536 16.2342 14.6536H15.9054ZM20.2803 5.92238C20.2777 3.60525 18.3888 1.71858 16.0698 1.71858C13.7508 1.71858 11.862 3.60525 11.8593 5.92419C11.8611 7.78585 13.0381 9.07479 14.4009 10.5672C14.9633 11.183 15.5396 11.8143 16.0698 12.5221C16.6 11.8143 17.1764 11.183 17.7388 10.5672C19.1016 9.07479 20.2785 7.78585 20.2803 5.92238ZM16.0268 6.86855C16.5014 6.86855 16.8861 7.25325 16.8861 7.72784C16.8861 8.20239 16.5014 8.58713 16.0268 8.58713C14.6054 8.58713 13.449 7.43071 13.449 6.00926C13.449 4.58781 14.6054 3.4314 16.0268 3.4314C17.4483 3.4314 18.6047 4.58781 18.6047 6.00926C18.6047 6.48385 18.22 6.86855 17.7454 6.86855C17.2708 6.86855 16.8861 6.48385 16.8861 6.00926C16.8861 5.53545 16.5007 5.14997 16.0268 5.14997C15.553 5.14997 15.1676 5.53545 15.1676 6.00926C15.1676 6.48308 15.553 6.86855 16.0268 6.86855ZM21.1396 12.2474C20.665 12.2474 20.2803 12.6321 20.2803 13.1067V19.3995C20.2803 19.695 20.1392 19.961 19.8933 20.1293C19.657 20.291 19.3714 20.3255 19.1098 20.2238C19.0959 20.2185 19.0819 20.2134 19.0678 20.2087L15.8256 19.1395C14.9136 18.8026 13.9346 18.7535 12.9931 18.9979L8.49443 20.1652C7.9101 20.3169 7.29156 20.3201 6.70564 20.1745L3.02399 19.26C2.25606 19.0692 1.71972 18.3834 1.71972 17.5921V2.58046C1.71972 2.2915 1.85675 2.03248 2.0957 1.86997C2.33465 1.70742 2.62589 1.67507 2.89461 1.78124C2.90802 1.78653 2.92151 1.79147 2.93513 1.79607L6.14318 2.88008C6.96307 3.1907 7.85102 3.26783 8.71245 3.103C9.17858 3.0138 9.48417 2.56366 9.39501 2.09758C9.30581 1.63146 8.85554 1.32578 8.38959 1.41502C7.83671 1.52081 7.26673 1.47024 6.74113 1.2688C6.73039 1.26467 6.71961 1.26081 6.70874 1.25716L3.50361 0.174172C2.7147 -0.129101 1.82882 -0.0270077 1.12911 0.449C0.422794 0.929433 0.00109863 1.72624 0.00109863 2.58046V17.5921C0.00109863 19.1746 1.07373 20.5464 2.6096 20.9279L6.29121 21.8424C6.71368 21.9474 7.14758 21.9998 7.58152 21.9998C8.03411 21.9998 8.4867 21.9428 8.92605 21.8287L13.4247 20.6614C14.0285 20.5047 14.6564 20.5373 15.2406 20.7555C15.2511 20.7594 15.2616 20.7631 15.2722 20.7667L18.5104 21.8346C19.2914 22.1293 20.1694 22.0228 20.8638 21.5476C21.5745 21.0612 21.9988 20.2582 21.9988 19.3994V13.1067C21.9989 12.6321 21.6142 12.2474 21.1396 12.2474ZM6.74646 8.76749C6.74646 8.29273 7.13099 7.9082 7.60575 7.9082C8.08051 7.9082 8.46504 8.29273 8.46504 8.76749C8.46504 9.24182 8.08051 9.62678 7.60575 9.62678C7.13099 9.62678 6.74646 9.24182 6.74646 8.76749ZM7.60575 11.0015C7.13099 11.0015 6.74646 11.386 6.74646 11.8608C6.74646 12.3355 7.13099 12.72 7.60575 12.72C8.08051 12.72 8.46504 12.3355 8.46504 11.8608C8.46504 11.386 8.08051 11.0015 7.60575 11.0015ZM6.74646 14.9541C6.74646 14.4794 7.13099 14.0948 7.60575 14.0948C8.08051 14.0948 8.46504 14.4794 8.46504 14.9541C8.46504 15.4289 8.08051 15.8134 7.60575 15.8134C7.13099 15.8134 6.74646 15.4289 6.74646 14.9541ZM7.60575 4.81506C7.13099 4.81506 6.74646 5.19959 6.74646 5.67435C6.74646 6.14868 7.13099 6.53364 7.60575 6.53364C8.08051 6.53364 8.46504 6.14868 8.46504 5.67435C8.46504 5.19959 8.08051 4.81506 7.60575 4.81506ZM6.74646 18.0474C6.74646 17.5726 7.13099 17.1881 7.60575 17.1881C8.08051 17.1881 8.46504 17.5726 8.46504 18.0474C8.46504 18.5217 8.08051 18.9067 7.60575 18.9067C7.13099 18.9067 6.74646 18.5217 6.74646 18.0474Z" fill="#4C51CB"/>
</svg>

<svg width="22" height="22" fill="none" xmlns="http://www.w3.org/2000/svg"><path fill-rule="evenodd" clip-rule="evenodd" d="M15.905 14.654a.86.86 0 01-.726-.4c-.586-.928-1.329-1.741-2.047-2.528-1.47-1.609-2.989-3.273-2.991-5.802A5.938 5.938 0 0116.07 0a5.937 5.937 0 015.929 5.922c-.003 2.531-1.522 4.195-2.991 5.804-.719.787-1.461 1.6-2.047 2.527a.86.86 0 01-.727.4h-.329zm4.375-8.732a4.216 4.216 0 00-4.21-4.203 4.216 4.216 0 00-4.21 4.205c.001 1.862 1.178 3.15 2.54 4.643.563.616 1.14 1.247 1.67 1.955.53-.708 1.106-1.339 1.669-1.955 1.363-1.492 2.54-2.781 2.541-4.645zm-4.253.947a.86.86 0 110 1.718 2.58 2.58 0 01-2.578-2.578 2.58 2.58 0 012.578-2.578 2.58 2.58 0 012.578 2.578.86.86 0 11-1.719 0 .86.86 0 00-1.718 0c0 .474.385.86.859.86zm5.113 5.378a.86.86 0 00-.86.86V19.4a.874.874 0 01-.387.73.834.834 0 01-.825.079l-3.242-1.07a4.715 4.715 0 00-2.833-.141l-4.499 1.167a3.643 3.643 0 01-1.788.01l-3.682-.915a1.716 1.716 0 01-1.304-1.668V2.58c0-.288.137-.548.376-.71a.847.847 0 01.799-.089c.013.006.027.01.04.015L6.143 2.88c.82.31 1.708.388 2.57.223a.86.86 0 00-.323-1.688 3.018 3.018 0 01-1.681-.158L3.504.174A2.575 2.575 0 000 2.58v15.012a3.431 3.431 0 002.609 3.336l3.681.914a5.353 5.353 0 002.635-.013l4.499-1.168a3.006 3.006 0 011.847.106l3.238 1.068a2.564 2.564 0 002.354-.287 2.603 2.603 0 001.135-2.149v-6.292a.86.86 0 00-.86-.86zM6.746 8.767a.86.86 0 111.719 0 .86.86 0 01-1.719 0zm.86 2.235a.859.859 0 100 1.718.859.859 0 000-1.719zm-.86 3.952a.86.86 0 111.719 0 .86.86 0 01-1.719 0zm.86-10.139a.86.86 0 100 1.718.86.86 0 000-1.718zm-.86 13.232a.859.859 0 111.719 0 .859.859 0 01-1.719 0z" fill="#4C51CB"/></svg>
